source/partials/community/_educators.svg

<svg xmlns="http://www.w3.org/2000/svg" viewBox="0 0 200 201" xmlns:xlink="http://www.w3.org/1999/xlink">
  <defs>
    <ellipse id="a" cx="99.94" cy="100.27" rx="99.94" ry="99.6"/>
    <path id="c" d="M0 0.27H42.17V50.38H0z"/>
  </defs>
  <g fill="none" fill-rule="evenodd">
    <g>
      <g transform="translate(0 .299)">
        <mask id="b" fill="#fff">
          <use xlink:href="#a"/>
        </mask>
        <use fill="#EBF5FA" xlink:href="#a"/>
        <path fill="#555" d="M-0.33 173H199.54V199.68H-0.33z" mask="url(#b)"/>
        <g mask="url(#b)">
          <g transform="translate(28.806 40)">
            <path fill="#000" fill-opacity=".05" d="M73.3333328,95.9444444 L73.3333328,95.9444444 C76.0333916,95.9444444 78.2222217,93.7556143 78.2222217,91.0555556 C78.2222217,88.3554968 76.0333916,86.1666667 73.3333328,86.1666667 C70.6332741,86.1666667 68.4444439,88.3554968 68.4444439,91.0555556 C68.4444439,93.7556143 70.6332741,95.9444444 73.3333328,95.9444444 L73.3333328,95.9444444 L73.3333328,95.9444444 Z M73.3333328,103.801493 L73.3333328,97.1666667 C69.9582594,97.1666667 67.2222217,94.430629 67.2222217,91.0555556 C67.2222217,87.6804821 69.9582594,84.9444444 73.3333328,84.9444444 C76.7084063,84.9444444 79.4444439,87.6804821 79.4444439,91.0555556 C79.4444439,93.561501 77.9361053,95.7151552 75.7777773,96.6581688 L75.7777773,96.6581688 L75.7777773,103.801493 C76.8569413,104.273 77.6111106,105.349827 77.6111106,106.6028 C77.6111106,108.290336 76.2430918,109.658355 74.5555551,109.658355 C72.8680183,109.658355 71.4999995,108.290336 71.4999995,106.6028 C71.4999995,105.349827 72.2541688,104.273 73.3333328,103.801493 L73.3333328,103.801493 Z"/>
            <path fill="#000" fill-opacity=".05" d="M139.944444,4.88888889 L5.5,4.88888889 L5.5,92.2777778 L141.166667,92.2777778 L141.166667,7.94444444 L142.388889,7.94444444 L142.388889,1.22222222 L139.944444,1.22222222 L139.944444,4.88888889 Z"/>
            <path fill="#5A89A1" d="M70.8888884 92.8888889L70.8888884 92.8888889C73.5889472 92.8888889 75.7777773 90.7000588 75.7777773 88 75.7777773 85.2999412 73.5889472 83.1111111 70.8888884 83.1111111 68.1888296 83.1111111 65.9999995 85.2999412 65.9999995 88 65.9999995 90.7000588 68.1888296 92.8888889 70.8888884 92.8888889L70.8888884 92.8888889zM70.8888884 94.1111111L70.8888884 94.1111111C67.5138149 94.1111111 64.7777773 91.3750735 64.7777773 88 64.7777773 84.6249265 67.5138149 81.8888889 70.8888884 81.8888889 74.2639619 81.8888889 76.9999995 84.6249265 76.9999995 88 76.9999995 91.3750735 74.2639619 94.1111111 70.8888884 94.1111111L70.8888884 94.1111111zM.61.27H141.17000000000002V6.380000000000001H.61z"/>
            <path fill="#5A89A1" d="M3.67 85.83H138.10999999999999V88.89H3.67z"/>
            <path fill="#FFF" d="M3.67 6.38H138.10999999999999V85.82H3.67z"/>
            <path fill="#5A89A1" d="M69.67 93.77H72.11V101.71H69.67z"/>
            <circle cx="70.89" cy="104.16" r="3.06" fill="#5A89A1"/>
            <path fill="#22D1F8" d="M12.83 21.66H77.61V22.88H12.83zM12.83 31.17H77.61V32.39H12.83zM12.83 40.94H77.61V42.16H12.83zM12.83 50.72H77.61V51.94H12.83zM12.83 60.5H77.61V61.72H12.83zM12.83 70.55H77.61V71.77H12.83z"/>
            <g transform="translate(86.778 21.389)">
              <mask id="d" fill="#fff">
                <use xlink:href="#c"/>
              </mask>
              <use fill="#EDF4F8" xlink:href="#c"/>
              <path fill="#5A89A1" d="M-0.469918571,25.9269057 L3.49482779,23.8133191 L6.25257898,24.358143 L11.7645835,19.0527835 L15.0933641,22.0292427 L18.5810953,20.52072 L27.3777621,25.4618111 L33.1784507,21.8163531 L37.1970201,23.1224255 L42.3562677,17.9579582 L43.1449019,50.4802258 L19.3433955,52.5012915 L-2.42124486,50.9243003 L-2.84175736,30.4211975 L-0.469918571,25.9269057 Z" mask="url(#d)"/>
            </g>
            <circle cx="94.72" cy="29.33" r="3.06" fill="#F9BA37"/>
          </g>
        </g>
      </g>
    </g>
  </g>
</svg>

<svg xmlns="http://www.w3.org/2000/svg" viewBox="0 0 200 200" xmlns:xlink="http://www.w3.org/1999/xlink"><defs><ellipse id="path-1" cx="99.94" cy="100.27" rx="99.94" ry="99.6"/><path id="path-3" d="M0 .27h42.17v50.1H0z"/></defs><g id="Page-1" fill="none" fill-rule="evenodd"><g id="Values"><g id="Mask-+-Group-Copy-52-+-Rectangle-124-Copy"><mask id="mask-2" fill="#fff"><use xlink:href="#path-1"/></mask><use id="Mask" fill="#EBF5FA" xlink:href="#path-1"/><path id="Rectangle-124" fill="#555" d="M-.33 173h199.87v26.68H-.33z" mask="url(#mask-2)"/><g id="Group-Copy-54" mask="url(#mask-2)"><g transform="translate(28.806 40)"><path id="Shape-Copy-4" fill="#000" fill-opacity=".05" d="M73.33 95.94c2.7 0 4.9-2.18 4.9-4.88 0-2.7-2.2-4.9-4.9-4.9s-4.9 2.2-4.9 4.9 2.2 4.88 4.9 4.88zm0 7.86v-6.63c-3.37 0-6.1-2.74-6.1-6.1 0-3.4 2.73-6.13 6.1-6.13 3.38 0 6.1 2.74 6.1 6.12 0 2.5-1.5 4.66-3.65 5.6v7.14c1.08.47 1.83 1.55 1.83 2.8 0 1.7-1.34 3.06-3.02 3.06-1.7 0-3.06-1.37-3.06-3.06 0-1.25.76-2.33 1.84-2.8z"/><path id="Rectangle-1322" fill="#000" fill-opacity=".05" d="M139.94 4.9H5.5v87.38h135.67V7.94h1.22V1.22h-2.48V4.9z"/><path id="Shape-Copy-3" fill="#5A89A1" d="M70.9 92.9c2.7 0 4.88-2.2 4.88-4.9s-2.2-4.9-4.9-4.9S66 85.3 66 88s2.2 4.9 4.9 4.9zm0 1.2c-3.4 0-6.12-2.72-6.12-6.1 0-3.38 2.73-6.1 6.1-6.1 3.4 0 6.12 2.7 6.12 6.1 0 3.38-2.74 6.1-6.1 6.1z"/><path id="Rectangle-1130-Copy-6" fill="#5A89A1" d="M.6.27h140.57v6.1H.6z"/><path id="Rectangle-1130-Copy-7" fill="#5A89A1" d="M3.67 85.83H138.1v3.06H3.68z"/><path id="Rectangle-1130-Copy-8" fill="#FFF" d="M3.67 6.38H138.1v79.44H3.68z"/><path id="Rectangle-1133-Copy-2" fill="#5A89A1" d="M69.67 93.77h2.44v7.94h-2.4z"/><circle id="Oval-708-Copy-2" cx="70.89" cy="104.16" r="3.06" fill="#5A89A1"/><path id="Rectangle-1134-Copy-15" fill="#22D1F8" d="M12.83 21.66H77.6v1.22H12.84z"/><path id="Rectangle-1134-Copy-16" fill="#22D1F8" d="M12.83 31.17H77.6v1.22H12.84z"/><path id="Rectangle-1134-Copy-17" fill="#22D1F8" d="M12.83 40.94H77.6v1.22H12.84z"/><path id="Rectangle-1134-Copy-18" fill="#22D1F8" d="M12.83 50.72H77.6v1.22H12.84z"/><path id="Rectangle-1134-Copy-19" fill="#22D1F8" d="M12.83 60.5H77.6v1.22H12.84z"/><path id="Rectangle-1134-Copy-20" fill="#22D1F8" d="M12.83 70.55H77.6v1.22H12.84z"/><g id="Path-1304-Copy-2" transform="translate(86.778 21.389)"><mask id="mask-4" fill="#fff"><use xlink:href="#path-3"/></mask><use id="Mask" fill="#EDF4F8" xlink:href="#path-3"/><path id="Path-1304" fill="#5A89A1" d="M-.47 25.93L3.5 23.8l2.75.56 5.5-5.3 3.34 2.97 3.46-1.5 8.8 4.93 5.8-3.64 4.02 1.3 5.15-5.16.78 32.52-23.8 2.02-21.75-1.58-.42-20.5 2.37-4.5z" mask="url(#mask-4)"/></g><circle id="Oval-714-Copy-2" cx="94.72" cy="29.33" r="3.06" fill="#F9BA37"/></g></g></g></g></g></svg>
